wp-content/themes/modern-journalist/img/icon-linkedin.svg

<?xml version="1.0" encoding="UTF-8"?>
<svg width="20px" height="20px" viewBox="0 0 20 20" version="1.1" xmlns="http://www.w3.org/2000/svg" xmlns:xlink="http://www.w3.org/1999/xlink">
    <!-- Generator: Sketch 54.1 (76490) - https://sketchapp.com -->
    <title>linkedin - poni</title>
    <desc>Created with Sketch.</desc>
    <g id="Page-1" stroke="none" stroke-width="1" fill="none" fill-rule="evenodd">
        <g id="Desktop-hd" transform="translate(-786.000000, -2597.000000)" fill="#000000">
            <path d="M790.550758,2603.20047 L790.550758,2616.09091 L786.256709,2616.09091 L786.256709,2603.20047 L790.550758,2603.20047 Z M790.830805,2599.21445 C790.830805,2599.8516 790.605214,2600.37995 790.154026,2600.79953 C789.702837,2601.21912 789.119412,2601.4289 788.403734,2601.4289 L788.380397,2601.4289 C787.664718,2601.4289 787.089073,2601.21912 786.653442,2600.79953 C786.217812,2600.37995 786,2599.8516 786,2599.21445 C786,2598.57731 786.225591,2598.04895 786.676779,2597.62937 C787.127968,2597.20979 787.711393,2597 788.427071,2597 C789.14275,2597 789.718395,2597.20979 790.154026,2597.62937 C790.589656,2598.04895 790.815247,2598.57731 790.830805,2599.21445 Z M797.201867,2605.02744 C797.365918,2604.76377 797.537056,2604.53551 797.715286,2604.34266 C797.901985,2604.14064 798.143133,2603.91531 798.43874,2603.66667 C798.734346,2603.41803 799.115517,2603.23155 799.582264,2603.10723 C800.049011,2602.98291 800.546866,2602.91298 801.075846,2602.89744 C802.553877,2602.89744 803.744064,2603.38694 804.646441,2604.36597 C805.548818,2605.34499 806,2606.7902 806,2608.70163 L806,2616.09091 L801.729288,2616.09091 L801.729288,2609.19114 C801.729288,2608.27428 801.550371,2607.55944 801.192532,2607.04662 C800.834693,2606.5338 800.282384,2606.27739 799.535589,2606.27739 C798.991051,2606.27739 798.53987,2606.42502 798.18203,2606.72028 C797.824191,2607.01554 797.544147,2607.3885 797.34189,2607.83916 C797.248541,2608.10334 797.201867,2608.45299 797.201867,2608.88811 L797.201867,2616.09091 L792.907818,2616.09091 C792.923376,2612.62547 792.931155,2609.82052 792.931155,2607.67599 L792.931155,2603.82984 L792.907818,2603.20047 L797.201867,2603.20047 L797.201867,2605.02744 L797.201867,2605.02744 Z" id="linkedin---poni"></path>
        </g>
    </g>
</svg>

<?xml version="1.0" encoding="utf-8"?>
<!-- Generator: Adobe Illustrator 23.0.2, SVG Export Plug-In . SVG Version: 6.00 Build 0)  -->
<svg version="1.1" id="Layer_1" xmlns="http://www.w3.org/2000/svg" xmlns:xlink="http://www.w3.org/1999/xlink" x="0px" y="0px"
	 viewBox="0 0 20 20" style="enable-background:new 0 0 20 20;" xml:space="preserve">
<style type="text/css">
	.st0{fill-rule:evenodd;clip-rule:evenodd;fill:#FFFFFF;}
</style>
<title>linkedin - poni</title>
<desc>Created with Sketch.</desc>
<g id="Page-1">
	<g id="Desktop-hd" transform="translate(-786.000000, -2597.000000)">
		<path id="linkedin---poni" class="st0" d="M790.6,2603.2v12.9h-4.3v-12.9H790.6z M790.8,2599.2c0,0.6-0.2,1.2-0.7,1.6
			c-0.5,0.4-1,0.6-1.8,0.6h0c-0.7,0-1.3-0.2-1.7-0.6s-0.7-0.9-0.7-1.6c0-0.6,0.2-1.2,0.7-1.6c0.5-0.4,1-0.6,1.8-0.6s1.3,0.2,1.7,0.6
			C790.6,2598,790.8,2598.6,790.8,2599.2z M797.2,2605c0.2-0.3,0.3-0.5,0.5-0.7c0.2-0.2,0.4-0.4,0.7-0.7c0.3-0.2,0.7-0.4,1.1-0.6
			s1-0.2,1.5-0.2c1.5,0,2.7,0.5,3.6,1.5c0.9,1,1.4,2.4,1.4,4.3v7.4h-4.3v-6.9c0-0.9-0.2-1.6-0.5-2.1c-0.4-0.5-0.9-0.8-1.7-0.8
			c-0.5,0-1,0.1-1.4,0.4c-0.4,0.3-0.6,0.7-0.8,1.1c-0.1,0.3-0.1,0.6-0.1,1v7.2h-4.3c0-3.5,0-6.3,0-8.4v-3.8l0-0.6h4.3V2605
			L797.2,2605z"/>
	</g>
</g>
</svg>
